icons/shield-off.svg

<svg width="24" height="24" viewBox="0 0 24 24" fill="none" xmlns="http://www.w3.org/2000/svg">
<g clip-path="url(#clip0)">
<path fill-rule="evenodd" clip-rule="evenodd" d="M0.292893 0.292893C0.683417 -0.0976311 1.31658 -0.0976311 1.70711 0.292893L23.7071 22.2929C24.0976 22.6834 24.0976 23.3166 23.7071 23.7071C23.3166 24.0976 22.6834 24.0976 22.2929 23.7071L17.6527 19.0669C16.5783 20.1582 15.4238 21.0362 14.4875 21.6692C13.9078 22.061 13.4042 22.3641 13.0431 22.5703C12.8624 22.6736 12.7169 22.7528 12.615 22.8071C12.564 22.8343 12.5238 22.8552 12.4955 22.8698L12.4621 22.8869L12.4523 22.8919L12.4492 22.8935L12.448 22.894C12.4478 22.8941 12.4472 22.8944 12 22C11.5528 22.8944 11.5525 22.8943 11.5522 22.8941L11.5492 22.8926L11.5427 22.8894L11.5212 22.8784C11.5032 22.8692 11.4777 22.856 11.4453 22.839C11.3806 22.805 11.2881 22.7556 11.1719 22.6913C10.9397 22.5627 10.6118 22.3741 10.22 22.1292C9.43854 21.6408 8.39238 20.9221 7.3415 20.0026C5.28175 18.2003 3 15.4464 3 12V5C3 4.83268 3.04166 4.6724 3.11679 4.531L0.292893 1.70711C-0.0976311 1.31658 -0.0976311 0.683417 0.292893 0.292893ZM5 6.41421V12C5 14.5536 6.71825 16.7997 8.6585 18.4974C9.60762 19.3279 10.5615 19.9842 11.28 20.4333C11.5633 20.6103 11.8084 20.7541 12 20.8628C12.0166 20.8533 12.0336 20.8437 12.051 20.8337C12.3759 20.6481 12.8359 20.3715 13.3674 20.0123C14.2402 19.4222 15.2853 18.6228 16.2384 17.6527L5 6.41421ZM12 22L11.5522 22.8941C11.8337 23.0349 12.1665 23.0348 12.448 22.894L12 22ZM11.6489 1.06367C11.8753 0.978776 12.1247 0.978776 12.3511 1.06367L20.3511 4.06367C20.7414 4.21003 21 4.58316 21 5V12C21 13.0219 20.798 13.9853 20.4621 14.8782C20.2677 15.3951 19.691 15.6566 19.1741 15.4621C18.6572 15.2677 18.3957 14.691 18.5902 14.1741C18.8515 13.4792 19 12.7541 19 12V5.693L12 3.068L8.71476 4.29997C8.19764 4.49389 7.62123 4.23188 7.42731 3.71476C7.23339 3.19764 7.49539 2.62123 8.01251 2.42731L11.6489 1.06367Z" fill="black"/>
</g>
<defs>
<clipPath id="clip0">
<rect width="24" height="24" fill="white"/>
</clipPath>
</defs>
</svg>

<svg
  width="24"
  height="24"
  viewBox="0 0 24 24"
  xmlns="http://www.w3.org/2000/svg"
>
  <g clip-path="url(#a)">
    <path
      fill-rule="evenodd"
      clip-rule="evenodd"
      d="M.293.293a1 1 0 0 1 1.414 0l22 22a1 1 0 0 1-1.414 1.414l-4.64-4.64c-1.075 1.091-2.23 1.97-3.165 2.602a22.779 22.779 0 0 1-1.873 1.138 9.734 9.734 0 0 1-.12.063l-.033.017-.01.005-.003.002h-.001L12 22l-.448.894-.003-.001-.006-.004-.022-.01a8.28 8.28 0 0 1-.35-.188 22.686 22.686 0 0 1-3.83-2.689C5.281 18.2 3 15.447 3 12V5c0-.167.042-.328.117-.469L.293 1.707a1 1 0 0 1 0-1.414zM5 6.414V12c0 2.554 1.718 4.8 3.659 6.497A20.692 20.692 0 0 0 12 20.863l.051-.03c.325-.185.785-.461 1.316-.82.873-.59 1.918-1.39 2.871-2.36L5 6.414zM12 22l-.448.894c.282.14.614.14.896 0L12 22zm-.351-20.936a1 1 0 0 1 .702 0l8 3A1 1 0 0 1 21 5v7a8.14 8.14 0 0 1-.538 2.878 1 1 0 1 1-1.872-.704c.262-.695.41-1.42.41-2.174V5.693l-7-2.625L8.715 4.3a1 1 0 0 1-.702-1.873l3.636-1.363z"
    />
  </g>
  <defs>
    <clipPath id="a">
      <rect width="24" height="24" />
    </clipPath>
  </defs>
</svg>
